icon/fa/money-bill-wave.svg

<svg xmlns="http://www.w3.org/2000/svg" viewBox="0 0 576 512"><!--! Font Awesome Free 6.1.2 by @fontawesome - https://fontawesome.com License - https://fontawesome.com/license/free (Icons: CC BY 4.0, Fonts: SIL OFL 1.1, Code: MIT License) Copyright 2022 Fonticons, Inc.--><path d="M48.66 79.13C128.4 100.9 208.2 80.59 288 60.25c87-22.17 174-44.35 261-11.87 16.9 6.31 27 23.24 27 41.28V399.5c0 23.9-25.6 39.7-48.7 33.4-79.7-21.8-159.5-1.5-239.3 18.8-87.9 22.2-174.9 44.4-261.03 11.9C10.06 457.3 0 440.4 0 422.3V112.5c0-23.91 25.61-39.67 48.66-33.37zM287.1 352c45.1 0 80.9-43 80.9-96.9 0-53-35.8-96-80.9-96-43.3 0-80 43-80 96 0 53.9 36.7 96.9 80 96.9zm-224 64h64c0-35.3-27.75-64-64-64v64zm0-272.9v64c36.25 0 64-27.8 64-64h-64zm448.9 160c-35.3 0-64 29.6-64 64.9h64v-64.9zm-64-208c0 36.2 28.7 64 64 64v-64h-64z"/></svg>

<svg xmlns="http://www.w3.org/2000/svg" viewBox="0 0 576 512" height="1em" width="1em">
<!--! Font Awesome Free 6.1.2 by @fontawesome - https://fontawesome.com License - https://fontawesome.com/license/free (Icons: CC BY 4.0, Fonts: SIL OFL 1.1, Code: MIT License) Copyright 2022 Fonticons, Inc.-->
  <path d="M48.66 79.13C128.4 100.9 208.2 80.59 288 60.25C375 38.08 462 15.9 549 48.38C565.9 54.69 576 71.62 576 89.66V399.5C576 423.4 550.4 439.2 527.3 432.9C447.6 411.1 367.8 431.4 288 451.7C200.1 473.9 113.1 496.1 26.97 463.6C10.06 457.3 0 440.4 0 422.3V112.5C0 88.59 25.61 72.83 48.66 79.13L48.66 79.13zM287.1 352C332.2 352 368 309 368 255.1C368 202.1 332.2 159.1 287.1 159.1C243.8 159.1 207.1 202.1 207.1 255.1C207.1 309 243.8 352 287.1 352zM63.1 416H127.1C127.1 380.7 99.35 352 63.1 352V416zM63.1 143.1V207.1C99.35 207.1 127.1 179.3 127.1 143.1H63.1zM512 303.1C476.7 303.1 448 332.7 448 368H512V303.1zM448 95.1C448 131.3 476.7 159.1 512 159.1V95.1H448z"/>
</svg>
